svgs/vi_music.svg

<svg xmlns="http://www.w3.org/2000/svg" viewBox="0 0 192 192"><path d="M74.416 175.316C61 173.065 49.031 161.094 46.672 147.57c-2.268-13.006.925-24.915 9.023-33.662 10.758-11.619 26.123-14.925 39.898-8.583 1.983.913 3.756 1.51 3.94 1.326.612-.612-2.424-3.977-9.565-10.6C72.849 80.17 46.1 59.019 29.199 47.996c-7.776-5.071-9.74-6.952-10.328-9.893-.937-4.684 1.369-6.976 14.835-14.747 6.991-4.035 9.29-4.724 14.727-4.409 4.475.259 7.842 1.523 10.905 4.094 2.03 1.703 17.08 21.79 21.84 29.148 6.866 10.614 14.586 24.207 19.743 34.762 2.9 5.935 5.445 10.897 5.656 11.028.212.13.303-4.845.202-11.056l-.621-38.221c-.319-19.609-.275-27.276.16-28.212.894-1.92 2.919-3.178 6.227-3.87l2.963-.62 5.312 3.007c14.252 8.07 27.287 12.143 41.994 13.122 7.44.495 8.939.965 9.915 3.106.764 1.678.785 34.999.022 36.424-1.469 2.745-5.33 3.187-15.82 1.812-12.101-1.586-21.649-4.226-31.031-8.58-2.755-1.279-5.204-2.326-5.441-2.326-.237 0-.515 18.656-.618 41.457-.207 46.004-.026 43.586-3.865 51.587-3.498 7.29-11.949 15.245-19.119 17.996-6.289 2.412-14.522 3.04-22.441 1.711Zm7.084-5.366c1.532-.763 3.438-2.244 4.237-3.291 2.074-2.72 2.068-7.66-.014-11.9-3.243-6.603-12.751-15.605-19.629-18.583-1.954-.846-4.002-1.274-6.276-1.309-3.059-.048-3.496.086-4.648 1.422-3.725 4.323-2.817 14.074 2.004 21.509 2.402 3.706 9.848 10.958 12.685 12.357 3.447 1.699 7.98 1.619 11.641-.205Z"/></svg>

<svg
    xmlns="http://www.w3.org/2000/svg"
    viewBox="0 0 192 192"
    id="vector">
    <path
        id="path_6"
        d="M 74.416 175.316 C 61 173.065 49.031 161.094 46.672 147.57 C 44.404 134.564 47.597 122.655 55.695 113.908 C 66.453 102.289 81.818 98.983 95.593 105.325 C 97.576 106.238 99.349 106.835 99.533 106.651 C 100.145 106.039 97.109 102.674 89.968 96.051 C 72.849 80.17 46.1 59.019 29.199 47.996 C 21.423 42.925 19.459 41.044 18.871 38.103 C 17.934 33.419 20.24 31.127 33.706 23.356 C 40.697 19.321 42.996 18.632 48.433 18.947 C 52.908 19.206 56.275 20.47 59.338 23.041 C 61.368 24.744 76.418 44.831 81.178 52.189 C 88.044 62.803 95.764 76.396 100.921 86.951 C 103.821 92.886 106.366 97.848 106.577 97.979 C 106.789 98.109 106.88 93.134 106.779 86.923 C 106.679 80.711 106.399 63.512 106.158 48.702 C 105.839 29.093 105.883 21.426 106.318 20.49 C 107.212 18.57 109.237 17.312 112.545 16.62 L 115.508 16 L 120.82 19.007 C 135.072 27.077 148.107 31.15 162.814 32.129 C 170.254 32.624 171.753 33.094 172.729 35.235 C 173.493 36.913 173.514 70.234 172.751 71.659 C 171.282 74.404 167.421 74.846 156.931 73.471 C 144.83 71.885 135.282 69.245 125.9 64.891 C 123.145 63.612 120.696 62.565 120.459 62.565 C 120.222 62.565 119.944 81.221 119.841 104.022 C 119.634 150.026 119.815 147.608 115.976 155.609 C 112.478 162.899 104.027 170.854 96.857 173.605 C 90.568 176.017 82.335 176.645 74.416 175.316 Z M 81.5 169.95 C 83.032 169.187 84.938 167.706 85.737 166.659 C 87.811 163.939 87.805 158.999 85.723 154.759 C 82.48 148.156 72.972 139.154 66.094 136.176 C 64.14 135.33 62.092 134.902 59.818 134.867 C 56.759 134.819 56.322 134.953 55.17 136.289 C 51.445 140.612 52.353 150.363 57.174 157.798 C 59.576 161.504 67.022 168.756 69.859 170.155 C 73.306 171.854 77.839 171.774 81.5 169.95 Z"
        fill="#000000"
        stroke-width="12"/>
</svg>
